picto/information.svg

<svg class="color-immutable" width="24" height="24" viewBox="0 0 24 24" fill="none" xmlns="http://www.w3.org/2000/svg"><g clip-path="url(#a)"><path d="M0 22.5v-21C0 .675.675 0 1.5 0h21c.825 0 1.5.675 1.5 1.5v21c0 .825-.675 1.5-1.5 1.5h-21C.675 24 0 23.325 0 22.5Z" fill="#2D327D"/><path fill-rule="evenodd" clip-rule="evenodd" d="M12 3a9 9 0 0 0-9 9 9 9 0 0 0 9 9 9 9 0 0 0 9-9 9 9 0 0 0-9-9Zm0 1.387a1.894 1.894 0 1 1 0 3.788 1.894 1.894 0 0 1 0-3.788Zm2.887 14.363H9.113a.375.375 0 0 1 0-.75h1.2V9.825h-1.2a.375.375 0 0 1 0-.75h4.613V18h1.162a.375.375 0 1 1-.001.75Z" fill="#fff"/></g><defs><clipPath id="a"><path fill="#fff" d="M0 0h24v24H0z"/></clipPath></defs></svg>

<svg class="color-immutable" width="24" height="24" viewBox="0 0 24 24" fill="none" xmlns="http://www.w3.org/2000/svg"><path d="M0 22.5V1.5C0 0.675 0.675 0 1.5 0H22.5C23.325 0 24 0.675 24 1.5V22.5C24 23.325 23.325 24 22.5 24H1.5C0.675 24 0 23.325 0 22.5Z" fill="#2D327D"/><path fill-rule="evenodd" clip-rule="evenodd" d="M12 3C7.029 3 3 7.029 3 12C3 16.971 7.029 21 12 21C16.971 21 21 16.971 21 12C21 7.029 16.971 3 12 3ZM12 4.387C13.046 4.387 13.894 5.235 13.894 6.281C13.894 7.327 13.046 8.175 12 8.175C10.954 8.175 10.106 7.327 10.106 6.281C10.106 5.235 10.954 4.387 12 4.387ZM14.887 18.75H9.113C8.906 18.75 8.738 18.582 8.738 18.375C8.738 18.168 8.905 18 9.113 18H10.313V9.825H9.113C8.906 9.825 8.738 9.657 8.738 9.45C8.738 9.243 8.906 9.075 9.113 9.075H13.726V18H14.888C15.095 18 15.263 18.168 15.263 18.375C15.262 18.582 15.095 18.75 14.887 18.75Z" fill="white"/></svg>
